svg/color/dtlt.svg

<?xml version="1.0" encoding="UTF-8" ?>
<!DOCTYPE svg PUBLIC "-//W3C//DTD SVG 1.1//EN" "http://www.w3.org/Graphics/SVG/1.1/DTD/svg11.dtd">
<svg width="250pt" height="243pt" viewBox="0 0 250 243" version="1.1" xmlns="http://www.w3.org/2000/svg">
<g id="#fefefeff">
<path fill="#fefefe" opacity="1.00" d=" M 0.00 0.00 L 250.00 0.00 L 250.00 243.00 L 0.00 243.00 L 0.00 0.00 M 116.32 14.85 C 111.14 15.35 106.28 17.41 101.09 17.71 C 95.94 18.30 91.47 21.16 86.45 22.30 C 72.40 27.76 59.80 36.57 49.10 47.12 C 45.23 51.89 40.67 56.09 37.31 61.26 C 32.41 68.99 27.59 76.92 24.83 85.71 C 23.63 89.80 21.48 93.70 21.45 98.07 C 21.21 102.54 18.34 106.48 18.50 111.01 C 18.40 120.54 18.20 130.09 18.66 139.61 C 19.61 143.95 21.52 148.07 21.73 152.56 C 24.41 161.79 27.81 170.99 33.15 179.04 C 40.21 191.76 51.20 201.66 62.21 210.89 C 70.68 217.15 79.93 222.51 90.02 225.67 C 93.02 226.61 95.80 228.43 99.03 228.50 C 103.29 228.74 107.27 230.41 111.39 231.36 C 115.25 231.72 119.18 231.26 122.99 232.16 C 128.70 233.19 134.32 231.42 140.02 231.53 C 146.03 231.88 151.42 228.54 157.38 228.26 C 171.24 223.85 184.75 217.48 195.53 207.52 C 211.35 195.00 223.32 177.74 229.62 158.58 C 232.16 153.24 232.02 147.19 233.77 141.61 C 236.09 133.59 235.45 125.21 235.48 116.97 C 235.57 108.78 232.18 101.11 231.38 93.02 C 227.97 80.84 222.07 69.44 214.87 59.05 C 200.71 40.13 180.57 25.75 158.04 18.60 C 154.96 17.96 151.81 17.66 148.77 16.82 C 138.28 13.56 127.12 14.36 116.32 14.85 Z" />
<path fill="#fefefe" opacity="1.00" d=" M 72.67 105.27 C 72.68 102.54 71.75 98.57 75.32 97.75 C 87.36 97.42 99.42 97.76 111.46 97.62 C 111.54 99.94 111.62 102.25 111.66 104.57 C 107.39 106.00 102.83 105.26 98.41 105.46 C 98.41 120.33 98.38 135.20 98.44 150.07 C 96.10 154.31 90.50 151.84 86.62 152.36 C 86.39 136.78 86.90 121.18 86.35 105.62 C 81.80 105.27 77.23 105.46 72.67 105.27 Z" />
<path fill="#fefefe" opacity="1.00" d=" M 144.37 98.62 C 146.54 98.14 148.70 97.45 150.96 97.60 C 160.27 97.69 169.59 97.51 178.90 97.70 C 181.94 98.36 181.80 101.50 181.31 103.94 C 178.06 106.65 173.45 105.02 169.54 105.41 C 167.63 108.78 169.00 112.49 169.43 116.01 C 168.07 121.24 168.68 126.66 168.57 132.00 C 168.68 136.34 168.13 140.76 169.28 145.01 C 169.45 147.07 170.11 149.74 168.13 151.15 C 164.67 153.43 160.14 152.52 156.41 151.43 C 156.43 136.11 156.45 120.77 156.38 105.45 C 152.37 105.34 148.21 105.93 144.37 104.52 C 144.45 102.55 144.44 100.59 144.37 98.62 Z" />
<path fill="#fefefe" opacity="1.00" d=" M 115.72 109.00 C 116.65 105.54 116.21 101.94 116.66 98.42 C 120.59 98.25 124.53 98.27 128.46 98.54 C 128.75 113.78 128.50 129.05 128.58 144.31 C 133.97 146.01 139.62 145.09 145.17 145.51 C 147.48 146.03 146.56 149.32 146.26 150.98 C 144.00 153.11 140.82 152.33 138.02 152.46 C 131.35 152.35 124.68 152.57 118.02 152.39 C 113.69 150.99 116.67 146.13 116.40 143.00 C 115.17 136.74 115.74 130.34 115.59 124.00 C 115.56 121.99 115.63 119.97 116.11 118.00 C 117.08 114.98 115.04 112.04 115.72 109.00 Z" />
</g>
<g id="#010102ff">
<path fill="#010102" opacity="1.00" d=" M 116.32 14.85 C 127.12 14.36 138.28 13.56 148.77 16.82 C 151.81 17.66 154.96 17.96 158.04 18.60 C 180.57 25.75 200.71 40.13 214.87 59.05 C 222.07 69.44 227.97 80.84 231.38 93.02 C 232.18 101.11 235.57 108.78 235.48 116.97 C 235.45 125.21 236.09 133.59 233.77 141.61 C 232.02 147.19 232.16 153.24 229.62 158.58 C 223.32 177.74 211.35 195.00 195.53 207.52 C 184.75 217.48 171.24 223.85 157.38 228.26 C 151.42 228.54 146.03 231.88 140.02 231.53 C 134.32 231.42 128.70 233.19 122.99 232.16 C 119.18 231.26 115.25 231.72 111.39 231.36 C 107.27 230.41 103.29 228.74 99.03 228.50 C 95.80 228.43 93.02 226.61 90.02 225.67 C 79.93 222.51 70.68 217.15 62.21 210.89 C 51.20 201.66 40.21 191.76 33.15 179.04 C 27.81 170.99 24.41 161.79 21.73 152.56 C 21.52 148.07 19.61 143.95 18.66 139.61 C 18.20 130.09 18.40 120.54 18.50 111.01 C 18.34 106.48 21.21 102.54 21.45 98.07 C 21.48 93.70 23.63 89.80 24.83 85.71 C 27.59 76.92 32.41 68.99 37.31 61.26 C 40.67 56.09 45.23 51.89 49.10 47.12 C 59.80 36.57 72.40 27.76 86.45 22.30 C 91.47 21.16 95.94 18.30 101.09 17.71 C 106.28 17.41 111.14 15.35 116.32 14.85 M 72.67 105.27 C 77.23 105.46 81.80 105.27 86.35 105.62 C 86.90 121.18 86.39 136.78 86.62 152.36 C 90.50 151.84 96.10 154.31 98.44 150.07 C 98.38 135.20 98.41 120.33 98.41 105.46 C 102.83 105.26 107.39 106.00 111.66 104.57 C 111.62 102.25 111.54 99.94 111.46 97.62 C 99.42 97.76 87.36 97.42 75.32 97.75 C 71.75 98.57 72.68 102.54 72.67 105.27 M 144.37 98.62 C 144.44 100.59 144.45 102.55 144.37 104.52 C 148.21 105.93 152.37 105.34 156.38 105.45 C 156.45 120.77 156.43 136.11 156.41 151.43 C 160.14 152.52 164.67 153.43 168.13 151.15 C 170.11 149.74 169.45 147.07 169.28 145.01 C 168.13 140.76 168.68 136.34 168.57 132.00 C 168.68 126.66 168.07 121.24 169.43 116.01 C 169.00 112.49 167.63 108.78 169.54 105.41 C 173.45 105.02 178.06 106.65 181.31 103.94 C 181.80 101.50 181.94 98.36 178.90 97.70 C 169.59 97.51 160.27 97.69 150.96 97.60 C 148.70 97.45 146.54 98.14 144.37 98.62 M 115.72 109.00 C 115.04 112.04 117.08 114.98 116.11 118.00 C 115.63 119.97 115.56 121.99 115.59 124.00 C 115.74 130.34 115.17 136.74 116.40 143.00 C 116.67 146.13 113.69 150.99 118.02 152.39 C 124.68 152.57 131.35 152.35 138.02 152.46 C 140.82 152.33 144.00 153.11 146.26 150.98 C 146.56 149.32 147.48 146.03 145.17 145.51 C 139.62 145.09 133.97 146.01 128.58 144.31 C 128.50 129.05 128.75 113.78 128.46 98.54 C 124.53 98.27 120.59 98.25 116.66 98.42 C 116.21 101.94 116.65 105.54 115.72 109.00 Z" />
</g>
</svg>

<?xml version="1.0" encoding="utf-8"?>
<!-- Generator: Adobe Illustrator 26.0.3, SVG Export Plug-In . SVG Version: 6.00 Build 0)  -->
<svg version="1.1" id="Layer_1" xmlns="http://www.w3.org/2000/svg" xmlns:xlink="http://www.w3.org/1999/xlink" x="0px" y="0px"
	 viewBox="0 0 250 243" style="enable-background:new 0 0 250 243;" xml:space="preserve">
<style type="text/css">
	.st0{fill:#FEFEFE;}
	.st1{fill:#010102;}
</style>
<g id="_x23_fefefeff">
	<path class="st0" d="M72.7,105.3c0-2.7-0.9-6.7,2.7-7.5c12-0.3,24.1,0,36.1-0.1c0.1,2.3,0.2,4.6,0.2,6.9c-4.3,1.4-8.8,0.7-13.2,0.9
		c0,14.9,0,29.7,0,44.6c-2.3,4.2-7.9,1.8-11.8,2.3c-0.2-15.6,0.3-31.2-0.3-46.7C81.8,105.3,77.2,105.5,72.7,105.3z"/>
	<path class="st0" d="M144.4,98.6c2.2-0.5,4.3-1.2,6.6-1c9.3,0.1,18.6-0.1,27.9,0.1c3,0.7,2.9,3.8,2.4,6.2
		c-3.2,2.7-7.9,1.1-11.8,1.5c-1.9,3.4-0.5,7.1-0.1,10.6c-1.4,5.2-0.8,10.7-0.9,16c0.1,4.3-0.4,8.8,0.7,13c0.2,2.1,0.8,4.7-1.1,6.1
		c-3.5,2.3-8,1.4-11.7,0.3c0-15.3,0-30.7,0-46c-4-0.1-8.2,0.5-12-0.9C144.4,102.6,144.4,100.6,144.4,98.6z"/>
	<path class="st0" d="M115.7,109c0.9-3.5,0.5-7.1,0.9-10.6c3.9-0.2,7.9-0.2,11.8,0.1c0.3,15.2,0,30.5,0.1,45.8
		c5.4,1.7,11,0.8,16.6,1.2c2.3,0.5,1.4,3.8,1.1,5.5c-2.3,2.1-5.4,1.4-8.2,1.5c-6.7-0.1-13.3,0.1-20-0.1c-4.3-1.4-1.3-6.3-1.6-9.4
		c-1.2-6.3-0.7-12.7-0.8-19c0-2,0-4,0.5-6C117.1,115,115,112,115.7,109z"/>
</g>
<g id="_x23_010102ff">
	<path class="st1" d="M116.3,14.9c10.8-0.5,22-1.3,32.5,2c3,0.8,6.2,1.1,9.3,1.8c22.5,7.1,42.7,21.5,56.8,40.4
		c7.2,10.4,13.1,21.8,16.5,34c0.8,8.1,4.2,15.8,4.1,24c0,8.2,0.6,16.6-1.7,24.6c-1.8,5.6-1.6,11.6-4.2,17
		c-6.3,19.2-18.3,36.4-34.1,48.9c-10.8,10-24.3,16.3-38.1,20.7c-6,0.3-11.4,3.6-17.4,3.3c-5.7-0.1-11.3,1.7-17,0.6
		c-3.8-0.9-7.7-0.4-11.6-0.8c-4.1-0.9-8.1-2.6-12.4-2.9c-3.2-0.1-6-1.9-9-2.8c-10.1-3.2-19.3-8.5-27.8-14.8
		c-11-9.2-22-19.1-29.1-31.9c-5.3-8-8.7-17.2-11.4-26.5c-0.2-4.5-2.1-8.6-3.1-12.9c-0.5-9.5-0.3-19.1-0.2-28.6
		c-0.2-4.5,2.7-8.5,3-12.9c0-4.4,2.2-8.3,3.4-12.4c2.8-8.8,7.6-16.7,12.5-24.5c3.4-5.2,7.9-9.4,11.8-14.1
		c10.7-10.5,23.3-19.4,37.3-24.8c5-1.1,9.5-4,14.6-4.6C106.3,17.4,111.1,15.4,116.3,14.9 M72.7,105.3c4.6,0.2,9.1,0,13.7,0.4
		c0.6,15.6,0,31.2,0.3,46.7c3.9-0.5,9.5,1.9,11.8-2.3c-0.1-14.9,0-29.7,0-44.6c4.4-0.2,9,0.5,13.2-0.9c0-2.3-0.1-4.6-0.2-6.9
		c-12,0.1-24.1-0.2-36.1,0.1C71.8,98.6,72.7,102.5,72.7,105.3 M144.4,98.6c0.1,2,0.1,3.9,0,5.9c3.8,1.4,8,0.8,12,0.9
		c0.1,15.3,0,30.7,0,46c3.7,1.1,8.3,2,11.7-0.3c2-1.4,1.3-4.1,1.1-6.1c-1.1-4.2-0.6-8.7-0.7-13c0.1-5.3-0.5-10.8,0.9-16
		c-0.4-3.5-1.8-7.2,0.1-10.6c3.9-0.4,8.5,1.2,11.8-1.5c0.5-2.4,0.6-5.6-2.4-6.2c-9.3-0.2-18.6,0-27.9-0.1
		C148.7,97.4,146.5,98.1,144.4,98.6 M115.7,109c-0.7,3,1.4,6,0.4,9c-0.5,2-0.6,4-0.5,6c0.2,6.3-0.4,12.7,0.8,19
		c0.3,3.1-2.7,8,1.6,9.4c6.7,0.2,13.3,0,20,0.1c2.8-0.1,6,0.6,8.2-1.5c0.3-1.7,1.2-4.9-1.1-5.5c-5.6-0.4-11.2,0.5-16.6-1.2
		c-0.1-15.3,0.2-30.5-0.1-45.8c-3.9-0.3-7.9-0.3-11.8-0.1C116.2,101.9,116.7,105.5,115.7,109z"/>
</g>
</svg>
